packages/dnb-ui-lib/assets/icons/reset.svg

<svg width="16" height="16" viewBox="0 0 16 16" fill="none" xmlns="http://www.w3.org/2000/svg">
<path d="M5.2818 15.2597C5.66969 15.405 6.10193 15.2083 6.24723 14.8204C6.39252 14.4325 6.19586 14.0003 5.80796 13.855L5.2818 15.2597ZM8.84791 14.1931C8.43745 14.2487 8.14978 14.6265 8.20539 15.037C8.261 15.4474 8.63883 15.7351 9.04929 15.6795L8.84791 14.1931ZM1 14.25C0.585786 14.25 0.25 14.5858 0.25 15C0.25 15.4142 0.585786 15.75 1 15.75V14.25ZM5.66631 15V15.75C6.08053 15.75 6.41631 15.4142 6.41631 15H5.66631ZM6.41631 10.3337C6.41631 9.91947 6.08053 9.58369 5.66631 9.58369C5.2521 9.58369 4.91631 9.91947 4.91631 10.3337H6.41631ZM1.75 8C1.75 4.54822 4.54822 1.75 8 1.75V0.25C3.71979 0.25 0.25 3.71979 0.25 8H1.75ZM8 1.75C11.4518 1.75 14.25 4.54822 14.25 8H15.75C15.75 3.71979 12.2802 0.25 8 0.25V1.75ZM5.80796 13.855C3.43627 12.9666 1.75 10.6793 1.75 8H0.25C0.25 11.325 2.34353 14.1591 5.2818 15.2597L5.80796 13.855ZM14.25 8C14.25 11.1639 11.8984 13.7798 8.84791 14.1931L9.04929 15.6795C12.8335 15.1668 15.75 11.9246 15.75 8H14.25ZM1 15.75H5.66631V14.25H1V15.75ZM6.41631 15V10.3337H4.91631V15H6.41631Z" fill="black"/>
</svg>

<svg width="16" height="16" viewBox="0 0 16 16" fill="none" xmlns="http://www.w3.org/2000/svg"><path d="M5.282 15.26a.75.75 0 00.526-1.405l-.526 1.405zm3.566-1.067a.75.75 0 10.201 1.487l-.201-1.487zM1 14.25a.75.75 0 000 1.5v-1.5zm4.666.75v.75a.75.75 0 00.75-.75h-.75zm.75-4.666a.75.75 0 10-1.5 0h1.5zM1.75 8A6.25 6.25 0 018 1.75V.25A7.75 7.75 0 00.25 8h1.5zM8 1.75A6.25 6.25 0 0114.25 8h1.5A7.75 7.75 0 008 .25v1.5zM5.808 13.855A6.253 6.253 0 011.75 8H.25a7.753 7.753 0 005.032 7.26l.526-1.405zM14.25 8a6.251 6.251 0 01-5.402 6.193l.201 1.487A7.751 7.751 0 0015.75 8h-1.5zM1 15.75h4.666v-1.5H1v1.5zM6.416 15v-4.666h-1.5V15h1.5z" fill="#000"/></svg>
